X: 4485
T:The Bird in the Bush
M:4/4
L:1/8
Q:230
S:Paddy Glackin, Gael-Linn CEF 069, 1980
R:reel
Z:posted by Philippe Varlet 4/97
K:G
v{A}~Buc | {e}d2 vgue vduBvAuB | {e}dBvAuB vGuBvAuG |
vEuA (3vAuAvA uBGvGuA | vBuGBd vguavgue |
vdugveuB {e}dBvAuB | {e}dBvAuB v~G3 uE |
DEvGuA {d}BAvBud | {e}dBvAuc BGvBuc ||
vdugveuB {e}dBvAuB | {e}dBvAuB vGuBvAuG |
vEuA (3vAuAvA uBGvGuA | vBuGvBud gavgue |
vdugveuB {e}dBvAuB | {e}dBvAuB v~G3 uE |
DEvGuA {d}BAvBud | {e}dBvAuc vBuGvGuA ||
Bdveuf (3vguavg fug | afvduf {a}gfveud |
Bdveuf {a}gfvgub | (3vauavg aub g2 vgua |
vbug~g2 vaugveuf | {a}gfv{a}gue vduB~B2 |
vDuEvGuA {d}BAvBud | {e}dBvAuc vBuGvGuA ||
(3vBucvd uevf ug2 vfug | vaufvduf {a}gfveud |
vBudveuf {a}gfvgub | v~a3  ub g2 vgua |
vbug~g2 vaugveuf | {a}gfv{a}gue vduB~B2 |
vDuEvGuA {d}BAvBud | {e}dBvAuc  BGvBuc ||
